mimetypes/scalable/text-x-install.svg

<?xml version="1.0" standalone="no"?><!-- Generator: Gravit.io --><svg xmlns="http://www.w3.org/2000/svg" xmlns:xlink="http://www.w3.org/1999/xlink" style="isolation:isolate" viewBox="0 0 256 256" width="256" height="256"><switch><g><g id="application-mimetype"><g opacity="0.2"><path d=" M 78.924321 15.500025 C 43.627596 15.500025 39.829708 19.125398 40.002695 54.49353 L 40.002695 127.500014 L 40.002695 200.506441 C 39.829708 235.874573 43.627596 239.500004 78.924321 239.500004 L 177.081083 239.500004 C 212.377805 239.500004 216.002702 235.875035 216.002702 200.506441 L 216.002702 127.500014 L 216.002702 54.49353 C 216.002702 19.124994 212.377805 15.500025 177.081083 15.500025 L 78.924321 15.500025 Z " id="path1163" fill="none" vector-effect="non-scaling-stroke" stroke-width="4" stroke="rgb(0,0,0)" stroke-linejoin="miter" stroke-linecap="butt" stroke-miterlimit="4"/></g><defs><filter id="0TeLo0UKGlcABYMi6OYaLmANceQM9xpa" x="-200%" y="-200%" width="400%" height="400%" filterUnits="objectBoundingBox" color-interpolation-filters="sRGB"><feGaussianBlur xmlns="http://www.w3.org/2000/svg" stdDeviation="2.120027"/></filter></defs><g opacity="0.1" filter="url(#0TeLo0UKGlcABYMi6OYaLmANceQM9xpa)"><path d=" M 78.924315 16.5 C 43.627592 16.5 39.82971 20.125416 40.002699 55.493531 L 40.002699 128.5 L 40.002699 201.50647 C 39.82971 236.874573 43.627592 240.500001 78.924315 240.500001 L 177.081083 240.500001 C 212.377806 240.500001 215.084425 236.863068 216.002699 201.50647 L 216.002699 128.5 L 216.002699 55.493531 C 216.002699 20.124997 212.377806 16.5 177.081083 16.5 L 78.924315 16.5 Z " id="shadow" fill="rgb(0,0,0)"/></g><defs><filter id="dqmKHJiRk9nqQAVxijiw0XCqfYwRJTRB" x="-200%" y="-200%" width="400%" height="400%" filterUnits="objectBoundingBox" color-interpolation-filters="sRGB"><feGaussianBlur xmlns="http://www.w3.org/2000/svg" stdDeviation="8.4801079"/></filter></defs><g opacity="0.3" filter="url(#dqmKHJiRk9nqQAVxijiw0XCqfYwRJTRB)"><linearGradient id="_lgradient_320" x1="-0.0681490711308741" y1="0.03125" x2="0.9537210324437329" y2="1.0531201035746074" gradientTransform="matrix(176.005396,0,0,224,39.997303,16.5)" gradientUnits="userSpaceOnUse"><stop offset="0%" stop-opacity="0.58823532" style="stop-color:rgb(0,0,0)"/><stop offset="88%" stop-opacity="0" style="stop-color:rgb(0,0,0)"/><stop offset="100%" stop-opacity="1" style="stop-color:rgb(0,0,0)"/></linearGradient><path d=" M 78.924315 16.5 C 43.627592 16.5 39.82971 20.125416 40.002699 55.493531 L 40.002699 128.5 L 40.002699 201.50647 C 39.82971 236.874573 43.627592 240.500001 78.924315 240.500001 L 177.081083 240.500001 C 212.377806 240.500001 216.002699 236.875001 216.002699 201.50647 L 216.002699 128.5 L 216.002699 55.493531 C 216.002699 20.124997 212.377806 16.5 177.081083 16.5 L 78.924315 16.5 Z " id="blur" fill="url(#_lgradient_320)"/></g><linearGradient id="_lgradient_321" x1="0.5333333114990033" y1="-0.0714285362430962" x2="0.5333333114990031" y2="1.1373259937957003" gradientTransform="matrix(176.005402,0,0,223.999979,39.9973,15.500025)" gradientUnits="userSpaceOnUse"><stop offset="0%" stop-opacity="1" style="stop-color:rgb(43,137,143)"/><stop offset="100%" stop-opacity="1" style="stop-color:rgb(91,219,193)"/></linearGradient><path d=" M 78.924321 15.500025 C 43.627596 15.500025 39.829708 19.125398 40.002695 54.49353 L 40.002695 127.500014 L 40.002695 200.506441 C 39.829708 235.874573 43.627596 239.500004 78.924321 239.500004 L 177.081083 239.500004 C 212.377805 239.500004 216.002702 235.875035 216.002702 200.506441 L 216.002702 127.500014 L 216.002702 54.49353 C 216.002702 19.124994 212.377805 15.500025 177.081083 15.500025 L 78.924321 15.500025 Z " id="shape" fill="url(#_lgradient_321)"/><g opacity="0.6"><path d=" M 78.924573 15.500025 C 43.627848 15.500025 39.829708 19.126032 40.002695 54.494165 L 40.002695 56.494138 C 39.829708 21.126005 43.627848 17.499998 78.924573 17.499998 L 177.080824 17.499998 C 212.377545 17.499998 216.002702 21.125601 216.002702 56.494138 L 216.002702 54.494165 C 216.002702 19.125571 212.377545 15.500025 177.080824 15.500025 L 78.924573 15.500025 Z " id="highlight" fill="rgb(255,255,255)"/></g><g opacity="0.2"><path d=" M 156.002703 239.500004 L 216.002702 179.500005 L 216.002702 201.983857 C 215.950394 235.97965 212.200019 239.500004 177.828601 239.500004 L 156.002703 239.500004 Z " id="clip" fill="rgb(255,255,255)"/></g></g><path d=" M 102.000981 73 L 102.000981 76.745069 L 102.000981 102.960985 L 81.461538 102.960985 L 83.952325 108.298835 C 83.952325 108.298835 101.370041 145.702982 124.993104 178.77944 L 128.008159 183 L 131.023227 178.77944 C 154.642741 145.705249 172.051304 108.313522 172.051304 108.313522 L 174.538462 102.975564 L 154.015357 102.975564 L 154.015357 73 L 102.000981 73 Z " id="download" fill="rgb(255,255,255)"/></g><foreignObject requiredExtensions="http://ns.gravit.io/"><gravitDesigner:gravitElementRef xmlns:gravitDesigner="http://ns.gravit.io/" xlink:href="#6EPj4M59hjaJoSaE3CViS5iRCwOs5Pcb"/></foreignObject></switch><gravitDesigner:gravitGraphicSource xmlns:gravitDesigner="http://ns.gravit.io/" id="6EPj4M59hjaJoSaE3CViS5iRCwOs5Pcb" version="1"><![CDATA[eMKcw41aacKPw6JowpLDvisjesK0wp/CsnN8HyXCrcK0BsOfw4bDhicYd8K3VsK+D3wfw5gww6rDv8K+wobCgiTCqcKpwq7DicKaw6nDmW4QAl47w4IRw6F4wp7CiHjDocOvwovDv1l8WsOUbhwuXhZ/XXzDusOpw6/Dl8KFwrjCrcKGw7ppwqV2w7tkXsOww7PCqgvCg8OFwqfCvh3DgsKXRcOdd8OzCT8tYHfCk2t6LcK4wpbDvMOfw7NJP8OML3J9KgZ1w6LDqR7CpQDCicKKGsOowqzDq8KNwpvDlWrCkTTCgxDDjcKnw7DDsysKOsOwTcOywpfCl8KfFsKMIBfCmsK1cXzDoE0Vw4Ebwrp8w4TCs0PCnMOVw45KwrFOw4PCrlpbU8KAwqrDpcKhw6s2w7Z8w4rDhcK0wpzDsHPDjT3CkMOuw6HCvSodBcOjwocqMQJse8KXwoPDoGYXeMK+HSbDsnbDlcKhG3jCmWx4w4/DnsK3DznCpwrCssKHN8OHwpXCpWvDvkgGYBIrUcOjw5k0w6XCq8OnaMKHwrAnwpXChWvDusOmw43DlcKEXcK0PsOcwr3CuQbDhiDCucODw6FNVcOAwqTDpMOuw4jCkxPCn8KZO8KsWkLCplXCuQPCtzrCkhllw7k7w7XDpsONNTB3w4nCqypcw4bCtMO0ScKVN8Oxw6XCvhfDncKww60tw6/ClADCoG5TPcK7GsOWQ8Orw4A7w7tuFR7Co8OxwpvDpEXDlSrDnGZaw73DpMOgcDbDmVVowqrCnV9TGHlyLUxpSQXCrMOzwoAXwrgIwphuVl0lwovDo8ODw4HDq0LDshRjEFXCocKmF1zDtghaworCn2Y2MmVkEx9rIQDDiHpnP8OkDk/Ct8K5w6DDl8K+wqbDgFbCsTwCw4hZwrVQw4lRdMK0G0fCh0sOa29/w7PDpirDmQjCj8ObfA1Mw7LClHwuc8KYXERGN0fDsCRTFsORw5XChMKgwqvDusK5w5gsOcOXw4PDvMKbN8OXw4DDnCV/w7nDpWXDkcKGUT/DtcKLT8OlwpDDp8OXb27DqSdVe0nDssO5aMOfRsOzB8O4FcOHSRTDghEMA1DChMKEEcO0BcKYwp9fW37DhTASw4RAAsOACRzCnMKfLz8SGMO2CsKSCMKMYRDChMOBIMKJw49qS8K3CG8AA0EMwp7DrcO6w5/CrsKvw6rDhSfDoBXCmj/Dp8OuKcK8WHDCh2Faw7bDq8OPS8Ovw6EZwqV5wq7Cvh3Cu8OowqhnPxbCqx9+wroYB8O8clk5w45aIjfDr8OCX18+C3lVG8KEw63Cs8KYNy4+w4HCr8Okw7XCgQPCnx84djnCkMO7F8KRwqHDr8KvwqcVw7nDohPDssKPwpfDuXV2w6jCv8OmFcKfEcKow4Exw4oYO8KTTcOCwrgWEMKCYsOTwqVYwqnCh8OqMcOdL37CnWXDgygSZi5Zw6jCkinChw7DmcOuwow2wp7CuBXDqgbCmkRMw4vDmDlSJ8OQV8KAw4XDncOgb8KTUMOvwpPDmkhROSPDnMOzAMOwIBg/wph5wrvDrsKaZsOtwrNmwoFyLEfDmxNMNsKQwpbCsMK3wpRCw7nCvw1afMKTwrzCpBRFw5HCscOWw5IEw7vDiMOOKnfDsF7Cl8KEw5oPw4/CrhUbw74ZLRUsP2XCicKhwqzChnF/SynCmMOBI8KtwoDCqMOqw7Bew5VFw7cjO8ODwp41w43DlsKPw6nCmsKdbMOfPMKUw7XCqW5qCHEDZsKHScKuw7fCkGvDoiXDvMKAe8OUIWfDsQRaHMKsSUDCgsKmwr7DlMODwpPCpDLDkW5TAcKjSsOewrzCucKacMKUwo4UwqPDnQByDcOMworCog7Dmltgw5zCvRwcwqklw43DoBjDq8O3fMK+EhzDgcOsZWnDgMOHwrPDnB9vw558DsOMTcOySsKNwrrCucO8QhXCnMK5IsKYBmrDgghNwoHDoGDDlsKzwpROQS7Dn8KzAFbDhMOKw43CqiVEH8OeJG8OVhrDtsOkIMKTw47CscKkOnYIwozDssKww7VxwqjDnUcmw40tE0cKEcKaOMOfYcK7NEsNLsKGNwfCr8Kqw4bCpxhTw4Rmd0rDlnJFwpUbw6csbgPCrcKINSvCpsOpUSfCkmPCoz7DpMOwwqfDmwwPw4LClsOawp/DoXzDmnXCsMKTbyfCo1htAWbCvcK3w60eb8KNw7rDpsONVcOyb8Okw5/Dnm7Ds8Onw4A8JR/Co8KcWnUZTsK8wpZCwqfCoV7CjTkWw5XDul7DjSZzwo8UYX7Ds8Omc2DDrsOJw7dBEgJew5EbNgHDqMOCOih2JcKhwq8sw78IwqIzwppxGAABCAMhwogAw6HClx8hw6AVwrkiHMKDERDCncK5CnnDsFDCl8K4QTXCvmchw7DDt2PCoX/DhjzDoMOrw51+ACUBFAXCoQ8zw48Tw4HDnVhIw68jwo1lw5xDUsOywrrCm8KVwpswYlHDl8Ojwo7Dm8OQFGHCt8KEw68sdMO3a8O+GMO6w73Cs09ePsK0w4x1fV5uw6dLwr/CkjDCjsOBMHkhdQwHw6/Dl8KSC8KBa8K4w5zDphNFBsKHThDCi8OuwqDDusOrVMO1EzXDpipxw7HDq8K/w4piwpzDqsOVwqnDncKowrt6w4sowrnCqcKww5hmHMOZw6bCuD0Hw6VSw4vDmsOvYMKxQnfCqWDDlMKNw70+w7FPw6zDrMOCwpTCgjTCp8Kww7oGK8KVeBl8B8KLw5kyawHDp1pWOMOGAMO5w6xIwp89IcOaNHZHw6BIwqjDq8OZb8KxwpjCscKHw5fCqsK4wqPCuE7CsMOXBMKawqfDpkDCs8O+EsKDR3odw4tLw7k7WAwkwojCicOcF2XDjmzCocO1w5YIw6x6b8OKPcOOw4vCusKqwqHCsMOkfgfCixHDpAFrw7fDm8OVw4nDnmNbckXDlSLCvcOkw7zCucOdI1PDk8OUEMOjO1gsJTzClnDDkRXDicKHw4zDiMOBdGnDksOweWd7w7EEYBzDo0M3wqs+wpPDlmrDvBbCi8OlA8Knbz3DhsOmemFVw7TDp8K0MMOyIcOrw6xeSMKsSsOXY8O5wrdYDC85w53DhDcxwqwXOMKFekllCSPCs1cYwrpaEsKubCzCv8KDw4V2OcKeZmDDk8KQUhZkdcOGw7nCoAdow5sINcKJRMOPw6NCw7jCk8Kyw5gFwrXDrzkMw74wwofDvcKnwqnDqcOlwptUwrnDvsOhw68/L8K6wp8vwpdDEBREIBQlEcKUIADCgnjDuXkRTcOzwpEfwoFXACNAwoQEcBDChMKBGW7DoMOlw5DDqcOnwovCnwAMQsOow7zDtXLDok/Cs8Kqw7rCsjp/w7fDp8O3wp8fJsO9wrzCmMOXwqrCq8OEwqwcwoJRGMKaDcK7wp3DvnrCvcOWb0rCvMKdCH7Do8KsCy3DvsK8aC/DpsKiw7Ndw4IvZMKJw4A4AcKBMMOxw6tbwpfDmFUaYVTCucKNw4DCpSR6wolGw5tZaMOzUjDCiMKtwqhtwoPDsl/DoWfCkHzDhVEAwoXDkTlGJAbCoQh2wr/CmsKjdcK0w50FVMOmw7gaBsKuMMK9P8KJZz4QbWENwoTDu8OWw7ooQ8O/w6PCsBsLSxI3C8ONPFNowqbDqEbDhsOOVT5bB8KNVElCAMOdGcO6I8ODw67CkGrClMKzw44lw5xZaghjwpnCuR3CozzDlMK4wobCqEDDh8K0UBYfH3bDg8KdwrfCssOTwo0Cw7TDi8KCw6xUdxQqw5xRLMKxw4rDkmbCqEPDr8K3woZdbgzDsUbDt1VaLndsIA47GBhDwqTDjcOww7TDpBDCuGstPj7DrMO2GArDpg7CgFkhwoY5JUbCmjpAwo97NQbDlGI5GcOnw4PDosOjw4MuakVcwrhnQS4BFB7Dm8OUZy1dwocHw4nDhlbCusODw6bDucKdwqE/MsOsEjRLwqLDvcKgH8KADMOabzRmw4t2FADDuMKpd1LDoX0cFMKLwo8Pwrt0w6vDsMOUwqpvU8KEwo3ClcKdwqzDrkJzUADCicOlMytvNx7DvVvDg8OuXsKXNcOfLsOFFcOgZGltw6TDjV4Sw5LDpXw5bm7CnlPDr8K4w7jDuMKwG3k1wr7Dk8KoARLDq2kPCsOHY0jCuMKMwpBteE86wpViwrVdw7wJwofDncK5w4nCrC87TsO/Xl/DucKOLMKhwpkHUQTChQEAJnASQ8OvZDnDsxt8fcKAM2HCksOzUcO4w47ClRcawp05CSJQGMKDEBjCmMK5w6JbwrzCicOALyDCjMK/w4wkw7bCnsOkwr5KwoUkw7gCwoHDpAtIw4Jfw6VDw6QVByHCmCBIYsK2FcOBw4gHHcOWJcKEwpdRN8KuW8OHRcKmw63ChsOBKsOIbsKoA8OBwrZOwqYvwrvCp8KhwrnCgMOYQ8OKdsKtDxxZCsKVw7fDqHHChQAIHiTCpS3DtVpnfmxowr7Dgj/DnArDqSM1T8K8LWEcfMKmcMOFJcOJUTXCtsKtWHcMCcKhwrvDnmFUw6PCt2gjwqnCtmxPRn0/HQ9Zw4nDlcKcwoHDocKJwrYmAEwCwrbCscORfgdtwoRVwr7DkcOEwrXCrMOAMTzCtgTDoMKJB3kJwrfClEwEw64eacO6w6/CoMKNUi4JLcKMTmQfwoPDiDLCgUDDkMOcw67DjCZ3wrbCvsOdwrXDo8OhO2hDwoDCtxLCkE/CtMK/wp0LfVnDuUpNdVwmw7MWclbDh114w7ombQxPMcOOwpwgw6B6VFptagzDnCjDuxXDrDh7McKiMncqwolTwozDvnEAPcKmw7dOw6UNwqzCvRsvfsOnTcKpwrnCrXnCucK9fsO5I8OTwp/CksKML2s5A8OIR2dVwqljwrLDn8K3wrbCv0YAGTzDsA0Qw5JOXsO2J8O4wpYwI8O5w5Vawo7CvSfDucOaOQjCuWZmMTTCt8KtaMOJYsKcFGTDrUkmw4zDkgDDkMODwr3Dul0Rw6FpX8OUcsOfwooDw6ZRLxgpXsOLwog4cHYRw5rCuF5LwqLDhFbCpl1mRyXDicO6w517cBlHw7ZNw5XDlUHCh1fDnzk4wp3DiS02DxTCg2tvw4ASwrLDmgnCqmVfBVfChcKEAUnCg8OdwqzCujp4wpfCvMKoOnszwrjDqidVRlfDrMKyZVYwccKUbzrDsygOQMOqwrrClMOOHBrCh2VVw7A+w4tRM8K4w6p3wqrCrsKIw6jCnhwcK8OuBC93wrHCucORTsK2wpfCjcKNw5jDtgJ1w6bCvHrDhcOCw5rDin8Pwq7DlHw4w7jCucK2PsKFXUUyATV7CG1PwoYSwpnCisODw6fDiyHDncOkwr3CoQByHyNPwrV1fMKEw73DqsOgc23DrVbCksKtw6Zyw601w5pYw5XCk8OBd0hFY8OZwrrCjHvDiQrCrMOkZsOVw5XDgT9LbU3DkjjDicOnV8O/HsK0w5jDrw7Dmn/CssKTA8Ocw7bCkMOnwrJxwp3CmcOmwoLDuMOvw6zDpCQmw4LDkxI7w7rDhMK6FTM2OcOYU8K/ZWROw4VhwpnDisO8w6TCiRvDusKuV8OXwprDlMK4woDCkzYIw4nDrWo6wp0ncMK+w5zDgyfDkcOJwqXCj3EDw5oJw5wXw6kQwoMQccO2w4ABccK2ehnCrDrDlsKfwocHw5/CnsOobj/CmMOLJXFNwqPCq8OccxESBldiw4UhZFRZwqnDqsOQwrYFw5PCn0gdw57CncO2A8KwwrPDtsKPw7R7wpbCk8KWasK7TMOGemDDhcKywqrCosOsRCM5XSwJw4AVwrBeZMOuPS80fsK1eAHDr8KLw5cOPsKyU1lkKSLCksOiw5Fcwp7DuGLCqwZIMCZAfcKkYMO8wpbDicOqMMKlWhx9wrPDp23Cl8K9RcKfccK8wog6K8KkwrNJH8O4XsKrwojDpSFIw6fCsQcjHnIZw7Qewpd5wrIXdEDCgS3Cmw/Cj8ONPHPCihvDhG9Fw6vCtF9XZ8KNN8Oew6PCssO+Ni5HLUMTIsOQw7ExDzcmBsKdwo3CvsKHw6HCjsKHdHtaK8KCecOzw6Yawpg/HMKXXynCqcOtBcKff8O5KlJ/wo/DncOWPxLCqVbDlMKiRkvDq8Kcw4zCoTzDgsKcYWJFw5Ewwq0WFMOtKsORanhCasK7w7REwoQHwqPDhsONFU3DlgjCtFEjBcOgWcKRw4/CjsOMwobCjsK+wqPCiX3Cnn3Cq8KQw7XDsH3CiWcww6TDiRV8wqjDvQTDsMKYY2bDmgFPwpdRw77CrsKJfcKCScK/UXEjM0Jhwp9Yw4LCssKgw47DocOawq3DjT0wZcKgw6fChR7DsMOUw4TCtg/CmFzDq8OscxPDi8Kowp48w5TDhsKhw5RGFMKIIz4PI3AJwoPCh8OGKMOXI8K3Ym85OilfNMKxX8OhAVbDhyZsFcO6eCHDlcKtecOwAWN1wrLCliHDi8O4wrQiwqkYw7QdPFBAw4ZSw6UJDnLCtnEkYlldWsKSw6TDscODwplMwpnDuMKEw5x/w4fDuggPw5B0DsOVXjkpZzrDhCMJwrTCuFMkw5gkXkE9UcKQE8O8wqdCwpxXw7V9VXwdcsK/f0fDu8O/C8K5w5VYw4pGRSJ9wpBCwpFBY15RGxUewqzClEYOw47Dqzk9w55DDsOdw4VsGEnCgMK4wp7CsgFgK2FYwp7DnGXCpcKdw5PDgGtCe8OzMcOIwq12w5bDocKLJD0lw6JGw43CoMK1w4MiwpB0ZHfDoyonbMOrw4zClcOnJg1hwqV7wqRRSsOuw5LChxwmGG7Drhh9w6BMwqZ6aMKzcSJgHcKFw7FOw6DDocKYG8KLwodcwqPCqMOvMllBwrVpW8KfTgDCk8KYZcKvwrY2Ih7DtH7Cl8KCw70hNjnDsj7DmcOBwoHCk2lHb8OzwpbDiU7CicOgX8KYw55pKxVjD8KKd8KaR8OdEcOxUsO1w6TCuMOFUcOWwpgYWmHDi8Oqwq0lRsKjB8K+w77DoDbDj8OPw5PDug9NYsO8wpbDhMOIw6dNcRDDvcK3csK4aArCoMKCwqXDrW7DkMKOw5o+Snc+FTM4PcK3ecOnXMOhw5bDoVMOS3jCmMK5Rz/DlRNfR1AFwpQRUjrCsU5jwoRtT3HDu8O2OlLDvmfDg8Ovw5Z1wp7Dum7Cn1bDpcKPRVrChMO9w6nDs8KGw5bDncOEBMKYWMOTAjlawqJcQcKkOMKmWm8qJsKMwrvDpCjCuMONPsO5GMOMUsKLNzTCvcKqw4J3acKfdThgwpLDowBLUmg4w4YAw5XDmC5dWwTDisKkMH7Du2XDuyrCp8OFcMO4w4jDsTnCklzDmjEhLcKKwoHCosOww6zCoMOzUHcYdsK7QsOGcXHCpB5yfsKpw4bCj8OBLMKMw7bCm8OhwqwHw6Rmw5LCtlrDiMKcGcKROUnDncO6wpDDrmspVMOSwqsca2/Csi/DpMK6dcKQY8O5wqY0w5PDvFwnBsKrasOnfMOJJcOUOsKIwoDCrkjDg8Krw5zDmljDlVoAacOxw4M/wq82wrTClcKiAXFhWEtyT8KBJxBpwrTCrQ82wqEYw4kOc8KDw7XCk8OkRcKVwrfClWnDrcOAccOvdlnDgjMdw7XCrQHCrXvCqsOYY8Kpw5sJU8KnwqrCumTCncOIwoASw53Dux/DhwLChcOXwrTDgHTCknvDmcK8dsOwQxdmw6/DhlNwwooAw5IFZcKqwqnCkSrDssOLwqZhGwfCr8OLA1PCusKnwrNywpXDm8OTwoLDtMKFCXxrCGhIwpwOw7nDlMOrwr5RwqsNwqbCjcOFw5BsQjUBwqzDosO+wp/CjVUyw6bDmlA+TMKgwo4CwqIVO8O9XWBGw53CoQrCnTTCiRhHw4vDhDcnwq3DmUDDvQbDr3VSwpJEwqHCuXnDsyR5URURPsKuw6XCtMO2w67Dnix5w60obg3DtWjDrFfCpAnCnTVvayfCvXYubHxDw6HDgsO6M8OlXijDvlluT8O6cQgdPGLDmcKJCMKJOmnDqMKTw4sDw44Oc8O6wp/DusKNw7XCkEvCnnLDlsKmw4Rlw4HCrMKpw5zDgcK1woY6w7PCgcObdMOswq7DmUlTwqFQUV99B8KZwqIgwoDDgiDCjBPDmMKMw54Lw6l8RjMKExjCiWIITsOOcMKGIcOswoV8w4VhHCQxBEEIwpDCmHE+wqMZIF4xwoJEERDCgRASIMORB8KawoNqLMOzw4rCvcO8w77DvcKfw5nDmwpFwodSWGHCp8OLwrFhLsKzDTsae8KqSsOoIMOYAcOgClLCnsOowq3DmkrClcOVchNgRcOiwpRZDsK0w4UFWcOYwrTCuiczHsKiHMKvWn/CuMKQw6bDhMOvBMKJDzI6HVRMwpMCAMKzDnEtDnDCqsKuOsO7w5LCrcOORA3CocOYJTU+wr9Xwpdfw5MuAcO1w7zDg1fDrMKdw5fCr8Olw6QtMsKqG8KHfwEXwr/Dvh9zwoErw7M=]]></gravitDesigner:gravitGraphicSource></svg>

<svg xmlns="http://www.w3.org/2000/svg" xmlns:xlink="http://www.w3.org/1999/xlink" style="isolation:isolate" width="256" height="256"><switch><g><path d="M78.924 15.5c-35.296 0-39.094 3.625-38.921 38.994v146.012c-.173 35.369 3.625 38.994 38.921 38.994h98.157c35.297 0 38.922-3.625 38.922-38.994V54.494c0-35.369-3.625-38.994-38.922-38.994H78.924z" fill="none" vector-effect="non-scaling-stroke" stroke-width="4" stroke="#000" opacity=".2"/><defs><filter id="a" x="-200%" y="-200%" width="400%" height="400%" filterUnits="objectBoundingBox" color-interpolation-filters="sRGB"><feGaussianBlur xmlns="http://www.w3.org/2000/svg" stdDeviation="2.12"/></filter></defs><path d="M78.924 16.5c-35.296 0-39.094 3.625-38.921 38.994v146.012c-.173 35.369 3.625 38.994 38.921 38.994h98.157c35.297 0 38.003-3.637 38.922-38.994V55.494c0-35.369-3.625-38.994-38.922-38.994H78.924z" opacity=".1" filter="url(#a)"/><defs><filter id="b" x="-200%" y="-200%" width="400%" height="400%" filterUnits="objectBoundingBox" color-interpolation-filters="sRGB"><feGaussianBlur xmlns="http://www.w3.org/2000/svg" stdDeviation="8.48"/></filter></defs><g opacity=".3" filter="url(#b)"><linearGradient id="c" x1="-.068" y1=".031" x2=".954" y2="1.053" gradientTransform="matrix(176.0054 0 0 224 39.997 16.5)" gradientUnits="userSpaceOnUse"><stop offset="0%" stop-opacity=".588"/><stop offset="88%" stop-opacity="0"/><stop offset="100%"/></linearGradient><path d="M78.924 16.5c-35.296 0-39.094 3.625-38.921 38.994v146.012c-.173 35.369 3.625 38.994 38.921 38.994h98.157c35.297 0 38.922-3.625 38.922-38.994V55.494c0-35.369-3.625-38.994-38.922-38.994H78.924z" fill="url(#c)"/></g><linearGradient id="d" x1=".533" y1="-.071" x2=".533" y2="1.137" gradientTransform="matrix(176.0054 0 0 223.99998 39.997 15.5)" gradientUnits="userSpaceOnUse"><stop offset="0%" stop-color="#2b898f"/><stop offset="100%" stop-color="#5bdbc1"/></linearGradient><path d="M78.924 15.5c-35.296 0-39.094 3.625-38.921 38.994v146.012c-.173 35.369 3.625 38.994 38.921 38.994h98.157c35.297 0 38.922-3.625 38.922-38.994V54.494c0-35.369-3.625-38.994-38.922-38.994H78.924z" fill="url(#d)"/><path d="M78.925 15.5c-35.297 0-39.095 3.626-38.922 38.994v2C39.83 21.126 43.628 17.5 78.925 17.5h98.156c35.297 0 38.922 3.626 38.922 38.994v-2c0-35.368-3.625-38.994-38.922-38.994H78.925z" fill="#FFF" opacity=".6"/><path d="M156.003 239.5l60-60v22.484c-.053 33.996-3.803 37.516-38.174 37.516h-21.826z" fill="#FFF" opacity=".2"/><path d="M102.001 73V102.961h-20.54l2.491 5.338s17.418 37.404 41.041 70.48l3.015 4.221 3.015-4.22c23.62-33.075 41.028-70.466 41.028-70.466l2.487-5.338h-20.523V73h-52.014z" fill="#FFF"/></g><foreignObject requiredExtensions="http://ns.gravit.io/"> </foreignObject></switch> </svg>
